X:1
T:The Hem of His Garment
T:George Frederick Root, 1887
T:The Hem of His Garment
T:Public Domain
T:Public Domain
C:George Frederick Root, 1887
Z:Public Domain
%%score ( 1 2 ) ( 3 4 )
L:1/8
M:6/8
K:D
V:1 treble 
V:2 treble 
V:3 bass 
V:4 bass 
V:1
 [FA] | [FA]2 [FA] [FA]2 [FA] | [FA][^E^G][FA] [=GB][FA][DF] | [CE]2 [DF] [FA]2 [EG] | %4
w: 1.~She|on- ly touched the|hem of His gar- ment As|to His side she|
w: 2.~She|came in fear and|trem- bling be- fore Him, She|knew her Lord had|
w: 3.~He|turned with “Daugh- ter,|be of good com- fort, Thy|faith hath made thee|
 [DF]3- [DF]2 [FA] | [FA]2 [FA] [FA]2 [FA] | [FA][^E^G][FA] [=GB][FA][FB] | [Ec]2 [Ed] [Ec]2 [EB] | %8
w: stole, * A-|mid the crowd that|ga- thered a- round Him, And|straight- way she was|
w: come; * She|felt that from Him|vir- tue had healed her, The|might- y deed was|
w: whole!” * And|peace that pass- eth|all un- der- stand- ing With|glad- ness filled her|
 [EA]3- [EA]2 ||"^Refrain" A | [Fd]2 [Fd] [Ac][GB][FA] | [GB]3 [FA]2 [FA] | [GB]2 [Bd] A2 [DF] | %13
w: whole. *|||||
w: done. *|||||
w: soul. *|||||
 [CE]3- [CE]2 [CE] | [DF]2 [DF] [CA]2 [CA] | [Dd]2 [Ad] (ed)[GB] | [FA]2 [FA] [GB]2 [Gc] | %17
w: ||||
w: ||||
w: ||||
 [Fd]3- [Fd]2 |] %18
w: |
w: |
w: |
V:2
 x | x6 | x6 | x6 | x6 | x6 | x6 | x6 | x5 || A | x6 | x6 | x3 A2 x | x6 | x6 | x3 G2 x | x6 | %17
 x5 |] %18
V:3
 [D,D] | [D,D]2 [D,D] [D,D]2 [D,D] | [D,D][D,D][D,D] [D,D][D,D][D,A,] | %3
w: ~|~ ~ ~ ~|~ ~ ~ ~ ~ ~|
 [A,,A,]2 [A,,A,] [A,,A,]2 [A,,A,] | [D,A,]3- [D,A,]2 [D,D] | [D,D]2 [D,D] [D,D]2 [D,D] | %6
w: ~ ~ ~ ~|~ * ~|~ ~ ~ ~|
 [D,D][D,D][D,D] [D,D][D,A,][D,A,] | [E,A,]2 [E,B,] [E,C]2 [E,D] | [A,C]3- [A,C]2 || A, | %10
w: ~ ~ ~ ~ ~ ~|~ ~ ~ ~|~ *|Oh,|
 [D,A,]2 [D,D] [D,D][D,D][D,D] | [D,D]3 [D,D]2 [D,D] | [G,D]2 [G,D] [F,D]2 [D,A,] | %13
w: the hem of His gar-|ment! And thou,|too, shalt be free!|
 [A,,A,]3- [A,,A,]2 [A,,A,] | [D,A,]2 [D,A,] [E,A,]2 [E,A,] | [F,A,]2 [F,A,] [G,B,]2 [G,D] | %16
w: His * sav-|ing power this ve-|ry hour Shall give|
 [A,D]2 [A,D] [A,C]2 [A,E] | [D,D]3- [D,D]2 |] %18
w: new life to thee!||
V:4
 x | x6 | x6 | x6 | x6 | x6 | x6 | x6 | x5 || A, | x6 | x6 | x6 | x6 | x6 | x6 | x6 | x5 |] %18
w: |||||||||touch|||||||||

